X: 20981
M: 6/8
L: 1/8
K: Bb
V: 1 name="1"
[AF] |\
f |\
fec cde | fdB BAB | cAF FGA | Bdf c2f |\
fed cde | fdB BAB | cAF FGA | B2d "^D.C."B2 |]


